icons/bazelignore.svg

<!--
  - The MIT License (MIT)
  -
  - Copyright (c) 2015-2024 Elior "Mallowigi" Boukhobza
  -
  - Permission is hereby granted, free of charge, to any person obtaining a copy
  - of this software and associated documentation files (the "Software"), to deal
  - in the Software without restriction, including without limitation the rights
  - to use, copy, modify, merge, publish, distribute, sublicense, and/or sell
  - copies of the Software, and to permit persons to whom the Software is
  - furnished to do so, subject to the following conditions:
  -
  - The above copyright notice and this permission notice shall be included in all
  - copies or substantial portions of the Software.
  -
  - THE SOFTWARE IS PROVIDED "AS IS", WITHOUT WARRANTY OF ANY KIND, EXPRESS OR
  - IMPLIED, INCLUDING BUT NOT LIMITED TO THE WARRANTIES OF MERCHANTABILITY,
  - FITNESS FOR A PARTICULAR PURPOSE AND NONINFRINGEMENT. IN NO EVENT SHALL THE
  - AUTHORS OR COPYRIGHT HOLDERS BE LIABLE FOR ANY CLAIM, DAMAGES OR OTHER
  - LIABILITY, WHETHER IN AN ACTION OF CONTRACT, TORT OR OTHERWISE, ARISING FROM,
  - OUT OF OR IN CONNECTION WITH THE SOFTWARE OR THE USE OR OTHER DEALINGS IN THE
  - SOFTWARE.
  -
  -->

<svg  version="1.1" xmlns="http://www.w3.org/2000/svg" x="0px" y="0px" width="16px" height="16px"
     viewBox="0 0 512 512" preserveAspectRatio="xMidYMid meet">
  <path fill="#808080" data-themed="true" data-iconColor="Bazel Ignore"
        d="M83.6978149,228.824295c36.3322296,7.4014587,61.1593933,5.9598083,61.1593933,5.9598083c-94.3032761-13.4781799-110.1357498-41.320816-121.6382904-62.9264832C8.0514946,143.3680878,2.6641622,0,2.6641622,0s-5.9186449,89.671524-0.1125021,141.8856964C8.3593454,194.1137238,47.357235,221.4211426,83.6978149,228.824295z M274.063324,195.7407837c-38.0500336,9.7766266-69.0756073,66.3207092-69.0756073,66.3207092s31.9804688,14.5921936,60.5530243-8.5007019c30.9768982-25.0361481,34.6283264-79.9442902,34.6283264-79.9442902s-66.8310852-0.6063995-88.8181763,19.2705841c-21.9889221,19.8786316-15.4016876,49.390686-15.4016876,49.390686l-13.4342499,19.2349243c-2.0222778-30.0514832-7.5787048-52.6724396-17.9315796-71.4244385C133.2236176,133.2867737,90.2476349,101.961586,27.4281731,77.9576645c12.2708435,4.9637375,100.968277,43.5324173,124.6949768,138.8482056c14.7856598,59.3974915-7.2576904,175.3479614-7.2576904,175.3479614c-7.9875641,58.3248901,31.5249786,110.8381653,89.8416748,118.8175354c58.7404633,8.0373535,111.3265839-31.8817139,119.2400665-89.8005371c12.3120422-92.3569641-94.5181885-157.2965698-171.3170166-97.2639465c0.537796-12.3614197,0.801239-23.8008118,0.776535-34.458252C216.6356812,198.3008728,274.063324,195.7407837,274.063324,195.7407837z M18.5241413,12.8636665c25.7809772,50.7039032,76.0863037,30.4903183,138.0764313,90.8517303c19.9111938,19.3880539,29.3041077,52.4884872,32.1512909,86.4058914c2.0496979-34.3911285-6.1924133-71.02491-29.8105316-95.0125351C103.3910141,38.6893082,47.9636803,55.8845825,18.5241413,12.8636665z M210.6614838,473.4238892c-51.4693909-29.6726685-51.4694061-104.2571411-0.0000153-133.9298401c51.4693909-29.6726685,116.1554565,7.6195679,116.1554565,66.9649353S262.1308899,503.0965576,210.6614838,473.4238892z"/>
</svg>

<svg xmlns="http://www.w3.org/2000/svg" viewBox="0 0 512 512"><path fill="gray" d="M83.698 228.824c36.332 7.402 61.16 5.96 61.16 5.96-94.304-13.478-110.137-41.32-121.64-62.926C8.052 143.368 2.665 0 2.665 0s-5.918 89.672-.112 141.886c5.807 52.228 44.805 79.535 81.146 86.938m190.365-33.083c-38.05 9.776-69.075 66.32-69.075 66.32s31.98 14.593 60.553-8.5c30.977-25.036 34.628-79.944 34.628-79.944s-66.831-.607-88.818 19.27c-21.989 19.879-15.402 49.39-15.402 49.39l-13.434 19.236c-2.022-30.052-7.579-52.673-17.932-71.425-31.36-56.801-74.335-88.126-137.155-112.13C39.7 82.92 128.396 121.49 152.123 216.806c14.786 59.397-7.258 175.348-7.258 175.348-7.987 58.325 31.525 110.838 89.842 118.817 58.74 8.038 111.327-31.881 119.24-89.8 12.312-92.357-94.518-157.297-171.317-97.264.538-12.362.801-23.8.777-34.458 33.229-91.148 90.656-93.708 90.656-93.708M18.524 12.864c25.781 50.704 76.086 30.49 138.077 90.851 19.91 19.388 29.304 52.489 32.15 86.406 2.05-34.39-6.192-71.025-29.81-95.012-55.55-56.42-110.977-39.224-140.417-82.245m192.137 460.56c-51.469-29.673-51.469-104.257 0-133.93s116.156 7.62 116.156 66.965-64.686 96.638-116.156 66.965" data-iconColor="Bazel Ignore" data-themed="true"/></svg>
